X: 18
T: Paddy O'Rafferty
R: jig
M: 6/8
L: 1/8
K: Amaj
|:cAe BGc|AGB AED|CEA EFA|B/c/dB cEc|
e2c dBG|Ace fzg|aec cBc|AcB AFE :|
|:A3 Ace | Ace ecA | Bgf Baf | Bgf fec |
Ace Ace| Ace f2g | aec cBc| AcB AFE :|
|:acc bcc| acc BGE| acc bcc |ABA AFE|
acc Acc| ae^d efg |aec cBc| AcB AFE:|
Ace aec |Ace fec | Ace aec | AcB AFE|
Ace aec| Ace fzg |aec cBc | AcB AFE||
Ace aec |Ace fec |Ace aec| AcB AFE|
AGA B^AB |cBc d^cd |e^de fff |gfg aed|


Tune 741	Setting 13827

